lib/flags/ss-south-sudan.svg

<svg xmlns="http://www.w3.org/2000/svg" fill="none" aria-hidden="true" viewBox="0 0 42 30"><g id="Country=SS - South Sudan, Size=sm (36x24)" filter="url(#filter0_dd_91_24985)"><g clip-path="url(#clip0_91_24985)"><g id="flag"><mask id="mask0_91_24985" width="36" height="24" x="3" y="2" maskUnits="userSpaceOnUse" style="mask-type:alpha"><rect id="mask" width="36" height="24" x="3" y="2" fill="white"/></mask><g mask="url(#mask0_91_24985)"><g id="contents"><path id="middle" fill="#F7FCFF" fill-rule="evenodd" d="M3 2H39V26H3V2Z" clip-rule="evenodd"/><path id="top" fill="#272727" fill-rule="evenodd" d="M3 2V10H39V2H3Z" clip-rule="evenodd"/><path id="bottom" fill="#4E8B1D" fill-rule="evenodd" d="M3 18V26H39V18H3Z" clip-rule="evenodd"/><path id="bottom_2" fill="#E31D1C" stroke="#F7FCFF" stroke-width="2" d="M3 9H2V10V18V19H3H39H40V18V10V9H39H3Z"/><path id="triangle" fill="#3D58DB" fill-rule="evenodd" d="M3 2L25.5 14L3 26V2Z" clip-rule="evenodd"/><path id="Star 5" fill="#FECA00" fill-rule="evenodd" d="M10.479 16.4084L8.20701 18.5085L7.96967 15.523L5.07227 13.9364L8.09389 13.0937L8.58804 10.1355L10.68 12.4777L13.731 11.751L12.154 14.5264L13.6875 17.2031L10.479 16.4084Z" clip-rule="evenodd"/></g></g></g></g></g><defs><filter id="filter0_dd_91_24985" width="42" height="30" x="0" y="0" color-interpolation-filters="sRGB" filterUnits="userSpaceOnUse"><feFlood flood-opacity="0" result="BackgroundImageFix"/><feColorMatrix in="SourceAlpha" result="hardAlpha" values="0 0 0 0 0 0 0 0 0 0 0 0 0 0 0 0 0 0 127 0"/><feOffset dy="1"/><feGaussianBlur stdDeviation="1"/><feColorMatrix values="0 0 0 0 0.0627451 0 0 0 0 0.0941176 0 0 0 0 0.156863 0 0 0 0.06 0"/><feBlend in2="BackgroundImageFix" result="effect1_dropShadow_91_24985"/><feColorMatrix in="SourceAlpha" result="hardAlpha" values="0 0 0 0 0 0 0 0 0 0 0 0 0 0 0 0 0 0 127 0"/><feOffset dy="1"/><feGaussianBlur stdDeviation="1.5"/><feColorMatrix values="0 0 0 0 0.0627451 0 0 0 0 0.0941176 0 0 0 0 0.156863 0 0 0 0.1 0"/><feBlend in2="effect1_dropShadow_91_24985" result="effect2_dropShadow_91_24985"/><feBlend in="SourceGraphic" in2="effect2_dropShadow_91_24985" result="shape"/></filter><clipPath id="clip0_91_24985"><rect width="36" height="24" x="3" y="2" fill="white" rx="2"/></clipPath></defs></svg>

<svg xmlns="http://www.w3.org/2000/svg" fill="none" aria-hidden="true" viewBox="0 0 42 30"><g filter="url(#a)"><g clip-path="url(#b)"><mask id="c" width="36" height="24" x="3" y="2" maskUnits="userSpaceOnUse" style="mask-type:alpha"><path fill="#fff" d="M3 2h36v24H3z"/></mask><g mask="url(#c)"><path fill="#F7FCFF" fill-rule="evenodd" d="M3 2h36v24H3V2Z" clip-rule="evenodd"/><path fill="#272727" fill-rule="evenodd" d="M3 2v8h36V2H3Z" clip-rule="evenodd"/><path fill="#4E8B1D" fill-rule="evenodd" d="M3 18v8h36v-8H3Z" clip-rule="evenodd"/><path fill="#E31D1C" stroke="#F7FCFF" stroke-width="2" d="M3 9H2v10h38V9H3Z"/><path fill="#3D58DB" fill-rule="evenodd" d="m3 2 22.5 12L3 26V2Z" clip-rule="evenodd"/><path fill="#FECA00" fill-rule="evenodd" d="m10.479 16.408-2.272 2.1-.237-2.985-2.898-1.587 3.022-.842.494-2.958 2.092 2.342 3.051-.727-1.577 2.775 1.534 2.677-3.209-.795Z" clip-rule="evenodd"/></g></g></g><defs><clipPath id="b"><rect width="36" height="24" x="3" y="2" fill="#fff" rx="2"/></clipPath><filter id="a" width="42" height="30" x="0" y="0" color-interpolation-filters="sRGB" filterUnits="userSpaceOnUse"><feFlood flood-opacity="0" result="BackgroundImageFix"/><feColorMatrix in="SourceAlpha" result="hardAlpha" values="0 0 0 0 0 0 0 0 0 0 0 0 0 0 0 0 0 0 127 0"/><feOffset dy="1"/><feGaussianBlur stdDeviation="1"/><feColorMatrix values="0 0 0 0 0.0627451 0 0 0 0 0.0941176 0 0 0 0 0.156863 0 0 0 0.06 0"/><feBlend in2="BackgroundImageFix" result="effect1_dropShadow_91_24985"/><feColorMatrix in="SourceAlpha" result="hardAlpha" values="0 0 0 0 0 0 0 0 0 0 0 0 0 0 0 0 0 0 127 0"/><feOffset dy="1"/><feGaussianBlur stdDeviation="1.5"/><feColorMatrix values="0 0 0 0 0.0627451 0 0 0 0 0.0941176 0 0 0 0 0.156863 0 0 0 0.1 0"/><feBlend in2="effect1_dropShadow_91_24985" result="effect2_dropShadow_91_24985"/><feBlend in="SourceGraphic" in2="effect2_dropShadow_91_24985" result="shape"/></filter></defs></svg>
